!! 00000] TT[WS
!!!OTL: Shiquan renxen
!!!ARE: Asia, China, Shanxi Qinyuan
!! Ethnic Group: Han
!! WII, 240 (2)
!!!SCT: J0761
!!!YEM: Copyright 1995, estate of Helmut Schaffrath.
**kern
*ICvox
*Ivox
*M4/4
*k[f#]
*G:
{8a
8a
8dd
16ee
16dd
8b
8a
8e
8g
=1
8b
8a
8g
16d
16e
2d}
=2
{8a
8b
8a
8a
8dd
16a
16g
8e
8g
=3
8b
8a
8g
16d
16e
2d}
=4
{8a
8g
4a
8a
8dd
8cc
8b
=5
8dd
16a
16dd
8e
8d
4.g
16f#
16e}
=6
{8a
8b
8a
8a
8dd
16a
16g
8e
8g
=7
8b
8a
8g
16d
16e
2d
=8
8a
8b
8a
8dd
4.g
16f#
16e}
=9
{8a
8b
8a
8a
8dd
16a
16g
8e
8g
=10
8b
8a
8g
16d
16e
2d}
==
!!!AGN: Xiaodiao. XÅshi, Xinminge
!!!ONB: ESAC (Essen Associative Code) Database: CHINA
!!!AMT: simple quadruple
!!!AIN: vox
!!!EED: Helmut Schaffrath
!!!EEV: 1.0
*-
